!!!!SEGMENT: artfugue-018b.krn
!!!COM: Bach, Johann Sebastian
!!!CDT: 1685/03/31-1750/07/28
!!!OPR@@DE: Die Kunst der Fuge
!!!OPR@EN: The Art of the Fugue
!!!OTL: Contrapunctus 18 (XII), a 4. (inversus)
!!!ONB: #12 in 1878 edition (SMS1)
!!!ONB: #18 in 1926 edition (SMS2)
!!!ONB: Nach dem Berliner Autographe Nr. 11.
!!!SCA: BWV 1080
!!!voices: 4
!!!AGN: Mirror fugue
**kern	**kern	**kern	**kern
*part2	*part2	*part1	*part1
*staff4	*staff3	*staff2	*staff1
*I"	*I"	*I"	*I"
*clefF4	*clefC4	*clefC3	*clefC1
*mclefF4	*mclefF3	*mclefGv2	*mclefG2
*k[b-]	*k[b-]	*k[b-]	*k[b-]
*d:	*d:	*d:	*d:
*M3/2	*M3/2	*M3/2	*M3/2
*MM200	*MM200	*MM200	*MM200
=58	=58	=58	=58
1.r	1.r	1.r	2a
.	.	.	1d
=59	=59	=59	=59
1.r	1.r	1.r	2f
.	.	.	1a
=60	=60	=60	=60
1.r	1.r	1.r	2b-
.	.	.	2a
.	.	.	2g
=61	=61	=61	=61
1.r	1.r	1.r	2.f
.	.	.	4e
.	.	.	4f
.	.	.	4g
=62	=62	=62	=62
1.r	1.r	2d	2a
.	.	1A	4r
.	.	.	4g
.	.	.	4f
.	.	.	4e
=63	=63	=63	=63
1.r	1.r	2B-	2d
.	.	1d	4r
.	.	.	4c
.	.	.	4B-
.	.	.	4A
=64	=64	=64	=64
1.r	1.r	2e-	4G
.	.	.	4A
.	.	2d	4B-
.	.	.	4c
.	.	2c	4d
.	.	.	4e-
!!LO:LB:g=original
=65	=65	=65	=65
1.r	1.r	2.B-	4d
.	.	.	8enL
.	.	.	8f#J
.	.	.	2.g
.	.	4A	.
.	.	4BX	.
.	.	4c#/	8aL
.	.	.	8gJ
=66	=66	=66	=66
1.r	1.r	2.d	4fn
.	.	.	8gL
.	.	.	8aJ
.	.	.	2.b-
.	.	4c#X	.
.	.	4d	.
.	.	4e	8ccL
.	.	.	8b-J
=67	=67	=67	=67
1.r	2A	8fL	2a
.	.	8e	.
.	.	8f	.
.	.	8gJ	.
.	1D	4a	4r
.	.	4d	4ff
.	.	4c	4ee
.	.	4B-	4dd
=68	=68	=68	=68
1.r	2F	2A	4cc
.	.	.	4dd
.	1A	4r	1cc#t
.	.	4G	.
.	.	4F	.
.	.	4E	.
=69	=69	=69	=69
1.r	2B-	4D	[1.dd
.	.	4E	.
.	2A	4F	.
.	.	4G	.
.	2G	4A	.
.	.	4B-	.
=70	=70	=70	=70
1.r	2.F	2.A	8ddL]
.	.	.	8ee
.	.	.	8ff
.	.	.	8eeJ
.	.	.	4dd
.	4E	4B-	4cc#X
.	4F	4A	4dd
.	4G	4G	4ee
!!LO:LB:g=original
=71	=71	=71	=71
2D	2A	4d	4ff
.	.	4e	4gg
1AA	4r	4f	2aa
.	4G	4g	.
.	4F	4a	4r
.	4E	4g	4cc#X
=72	=72	=72	=72
2BB-	2D	4f	8ddL
.	.	.	8ee
.	.	4e	8ff
.	.	.	8ggJ
1D	4r	4d	2ff
.	4C	4e-	.
.	4BB-	4d	4r
.	4AA	4c	4f#X
=73	=73	=73	=73
2E-	4GG	4B-	8gL
.	.	.	8a
.	4AA	4A	8b-
.	.	.	8ccJ
2D	4BB-	[1G	2b-
.	4C	.	.
2C	4D	.	4r
.	4E-	.	4g
=74	=74	=74	=74
2.BB-	2.D	4G]	8ddL
.	.	.	8cc
.	.	4d	8b-
.	.	.	8aJ
.	.	2g	2g
4AA	4C#X	.	.
4BBX	4D	4r	2gg
4C#X	4E	4A	.
=75	=75	=75	=75
2.D	2.D	4B-	8ffL
.	.	.	8ee
.	.	4f	8dd
.	.	.	8ccJ
.	.	2b-	2b-
4C#X	4E	.	.
4D	4F	4r	2bb-
4E	4G	4c#X	.
!!LO:LB:g=original
=76	=76	=76	=76
2.F	2.A	4d	8aaL
.	.	.	8gg
.	.	8AL	8ff
.	.	8GJ	8eeJ
.	.	4F	2dd
4E	4G	4B-	.
4F	4A	4A	4r
4G	4B-	4e	4cc#X
=77	=77	=77	=77
4F	4A	2.d	4dd
4E	4G	.	4ee
2.D	2.F	.	4ff
.	.	4e	4gg
.	.	4f	2aa
8CL	8EL	4g	.
8BB-J	8GJ	.	.
=78	=78	=78	=78
8AAL	4F	[2a	1.r
8GG	.	.	.
8FF	4D	.	.
8EEJ	.	.	.
[2DD	4A	8aL]	.
.	.	8g	.
.	8dL	8f	.
.	8cJ	8eJ	.
8DDL]	4B-	[2d	.
8CC#X	.	.	.
8DD	8AL	.	.
8EEJ	8GJ	.	.
=79	=79	=79	=79
4FF	4A	8dL]	1r
.	.	8D	.
4GG	4B-	8d	.
.	.	8eJ	.
2.AA	8AL	8fL	.
.	8G	8g	.
.	8F	8a	.
.	8EJ	8gJ	.
.	[2D	4f	8aL
.	.	.	8g
8BB-L	.	4F	8f
8CJ	.	.	8eJ
=80	=80	=80	=80
2BB-	2.D]	2G	8dL
.	.	.	8c#X
.	.	.	8d
.	.	.	8eJ
2.AA	.	2.F	4f
.	8C#L	.	4g
.	8BBnJ	.	.
.	2C#t	.	4a
4GG	.	4E	4b-
!!LO:LB:g=original
=81	=81	=81	=81
2.FF	4D	2F	4a
.	2A	.	8bXL
.	.	.	8cc#XJ
.	.	[1f	2.dd
4EE	4G	.	.
4FF	4A	.	.
4GG	4BX	.	8eeL
.	.	.	8ddJ
=82	=82	=82	=82
1AA	4.c	4f]	4ccn
.	.	8eL	4ee
.	16BXLL	8gJ	.
.	16cJJ	.	.
.	2d	8fL	2a
.	.	8d	.
.	.	8c	.
.	.	8BXJ	.
8r	2r	4A	8r
8AAL	.	.	8ccL
8GG	.	4B	8bX
8FFJ	.	.	8aJ
=83	=83	=83	=83
8EEL	8EL	8cL	4g#
8FF	8D	8BX	.
8EE	8C	8c	8aXL
8DDJ	8BBXJ	8dJ	8bXJ
4CC	[2AA	8eL	4cc
.	.	8f	.
4r	.	8e	4dd
.	.	8dJ	.
2r	8AAL]	8cL	4ee
.	8GG#	8B	.
.	8AAX	8A	4ff
.	8BBJ	8G#J	.
=84	=84	=84	=84
1r	4C	2A	4ee
.	4D	.	4dd
.	2.E	1r	4cc
.	.	.	4dd
[2AA	.	.	4cc
.	8FL	.	4bX
.	8GJ	.	.
=85	=85	=85	=85
4AA]	2F	1.r	2a
4BBX	.	.	.
4C	2.E	.	2g
4D	.	.	.
4E	.	.	8r
.	.	.	8gL
4F	4D	.	8a
.	.	.	8bXJ
!!LO:LB:g=original
=86	=86	=86	=86
4E	2.C	1.r	8ccL
.	.	.	8dd
4G#	.	.	8ee
.	.	.	8ffJ
[1AX	.	.	8eeL
.	.	.	8aa
.	4BBX	.	8gg
.	.	.	8ffJ
.	4C	.	8eeL
.	.	.	8dd
.	4D	.	8cc
.	.	.	8bnXJ
=87	=87	=87	=87
4A]	2.E	1.r	8ccL
.	.	.	8dd
8GnL	.	.	8ee
8FJ	.	.	8ddJ
4E	.	.	2cc
4F#X	4D	.	.
4G	4E	.	4r
4A	4F#X	.	4cc
=88	=88	=88	=88
[2B-	2.G	1.r	8b-L
.	.	.	8a
.	.	.	8g
.	.	.	8b-J
8B-]L	.	.	2dd
8A	.	.	.
8G	4E	.	.
8B-J	.	.	.
8AL	4Fn	.	8r
8c	.	.	8aL
8B-	4G	.	8g
8dJ	.	.	8fJ
=89	=89	=89	=89
[2c	[2A/	8cL	4e
.	.	8B-	.
.	.	8A	8fL
.	.	8GJ	8gJ
8cL]	8AL]	[2F	4a
8B-	8G	.	.
8A	8F	.	4b-
8GJ	8GJ	.	.
[2F	8AL	8FL]	4cc
.	8G	8E	.
.	8A	8F	4dd
.	8B-J	8GJ	.
!!LO:LB:g=original
=90	=90	=90	=90
2F]	4c	4A	4cc
.	8dL	4B-	4b-
.	8eJ	.	.
8FFL	[2f	2.c	4a
8GG	.	.	.
8AA	.	.	4g
8BB-J	.	.	.
4AA	8fL]	.	[2f
.	8e-	.	.
4FF	8d	8dL	.
.	8cJ	8e-J	.
=91	=91	=91	=91
8BB-L	2B-	2d	8fL]
8C	.	.	8e
8D	.	.	8f
8EJ	.	.	8gJ
[2F	8AL	2.c	[2a
.	8G	.	.
.	8A	.	.
.	8B-J	.	.
8FL]	[2c	.	8aL]
8E	.	.	8g
8F	.	4B-	8a
8GJ	.	.	8b-J
=92	=92	=92	=92
8AL	8cL]	2.A	4cc
8G	8B-	.	.
8F	8A	.	8ddL
8EJ	8GJ	.	8eeJ
1D	4A	.	2.ff
.	8BXL	4G	.
.	8cJ	.	.
.	4d	4A	.
.	4D	4BX	8ggL
.	.	.	8ffJ
=93	=93	=93	=93
8CL	2E	[2c	4ee
8D	.	.	.
8C	.	.	4gg
8BB-J	.	.	.
8AAL	2.F	8cL]	2cc
8BB-	.	8d	.
8AA	.	8c	.
8GGJ	.	8B-J	.
8FFL	.	4A	2r
8GG	.	.	.
8AA	8EL	4c	.
8BB-J	8DJ	.	.
!!LO:LB:g=original
=94	=94	=94	=94
8CL	8EL	[2G	1.r
8D	8F	.	.
8E	8G	.	.
8DJ	8FJ	.	.
4C	8EL	8GL]	.
.	8F	8A	.
2C	8E	8G	.
.	8DJ	8FJ	.
.	4E	4G	.
8BB-L	4F#X	4A	.
8AAJ	.	.	.
=95	=95	=95	=95
[1.GG	2G	8B-L	1.r
.	.	8c	.
.	.	8B-	.
.	.	8AJ	.
.	8r	4B-	.
.	8dL	.	.
.	8e-	4c	.
.	8cJ	.	.
.	8B-L	4d	.
.	8A	.	.
.	8G	4e-	.
.	8AJ	.	.
=96	=96	=96	=96
4GG]	4B-	4d	1.r
8FFL	4d	4f	.
8EE-J	.	.	.
4FF	4c	4e-	.
4GG	4B-	4d	.
[2AA	4A	8c#L	.
.	.	8BnX	.
.	4F	8A	.
.	.	8BXJ	.
=97	=97	=97	=97
1AA_	8EL	4c#X	1.r
.	8D	.	.
.	8C#X	4d	.
.	8BBXJ	.	.
.	8C#L	4e	.
.	8AA	.	.
.	8D	4f	.
.	8BBJ	.	.
4AA]	4C#	4e	.
8GGL	4E	4g	.
8FFJ	.	.	.
!!LO:LB:g=original
=98	=98	=98	=98
8GGL	4D	4f	1.r
8AA	.	.	.
8BB-	4C#X	4e	.
8AAJ	.	.	.
4BB-	4D	8dL	.
.	.	8e	.
4AA	4F	8d	.
.	.	8c#XJ	.
2GG	8B-L	4d	.
.	8A	.	.
.	8G	4e	.
.	8B-J	.	.
=99	=99	=99	=99
4D/	[2A/	8fL	8aL
.	.	8eJ	8g
2DD	.	[4d	8f
.	.	.	8eJ
.	8AL]	8dL]	[2d
.	8F	8c	.
8EEL	8G	8B-	.
8FFJ	8AJ	8AJ	.
8GGL	2B-	4G	8dL]
8EE	.	.	8c#X
8FF	.	[4D	8d
8GGJ	.	.	8eJ
=100	=100	=100	=100
8AAL	[2A/	4D]	4f
8BB-	.	.	.
8AA	.	4E	4g
8GGJ	.	.	.
[2FF	8AL]	4F	2.a
.	8G	.	.
.	8F	4D	.
.	8EJ	.	.
8FFL]	[2D	2A	.
8GG	.	.	.
8FF	.	.	8b-L
8EEJ	.	.	8ccJ
=101	=101	=101	=101
8DDL	4D]	2r	2b-
8EE	.	.	.
8DD	4G	.	.
8CC#XJ	.	.	.
8DDL	4F	8r	2.a
8EE	.	8b-L	.
8FF	4D	8a	.
8GGJ	.	8gJ	.
[2AA	4.C#X	8fL	.
.	.	8d	.
.	.	8e	4g
.	16DLL	8c#XJ	.
.	16EJJ	.	.
!!LO:LB:g=original
=102	=102	=102	=102
8AAL]	8FL	2.d	2.f
8BB-	8G	.	.
8AA	8F	.	.
8GGJ	8EJ	.	.
8AAL	8FL	.	.
8BB-	8GJ	.	.
8C	2A	4cn	4e
8DJ	.	.	.
8CL	.	4d	4f
8BB-	.	.	.
8AA	4B-	4e	4g
8GGJ	.	.	.
=103	=103	=103	=103
8FFL	4A	8fL	[2a
8GG	.	8eJ	.
8FF	4d	4d	.
8EEJ	.	.	.
8FFL	8AL	4a	8aL]
8GG	8GJ	.	8b-
8AA	[4F	2r	8a
8BB-J	.	.	8gJ
8AAL	8FL]	.	4f
8GG	8E	.	.
8FF	8D	[4A	4a
8AAJ	8FJ	.	.
=104	=104	=104	=104
8CL	2A	4A]	[2e
8D	.	.	.
8C	.	8EL	.
8BBXJ	.	8FJ	.
4C	2r	4E	8eL]
.	.	.	8f
4AA	.	8cL	8e
.	.	8BXJ	8dJ
4C	4r	8AL	4e
.	.	8B	.
4AA	4A	8c	4f
.	.	8dJ	.
=105	=105	=105	=105
8EEL	4G	8eL	[2g
8FF	.	8dJ	.
8EE	4B-	2c#X	.
8DDJ	.	.	.
8EEL	4G	.	8gL]
8FFJ	.	.	8a
[4GG	[4E	4e	8g
.	.	.	8fJ
8GGL]	8EL]	4c	4e
8FF#	8D	.	.
8GG	8E	[4G	4g
8AAJ	8F#XJ	.	.
!!LO:LB:g=original
=106	=106	=106	=106
8BB-L	4G	8GL]	[2d
8C	.	8A	.
8BB-	4D	8G	.
8AAJ	.	8FJ	.
8BB-L	2r	4E	8dL]
8GGJ	.	.	8e
[4G	.	2B-	8d
.	.	.	8c#XJ
8GL]	2r	.	4d
8F	.	.	.
8E	.	4B-	4g
16DL	.	.	.
16C#XJJ	.	.	.
=107	=107	=107	=107
[1.D	8AL	[2A	2.f
.	8G	.	.
.	8F	.	.
.	8EJ	.	.
.	2.D	8AL]	.
.	.	8c	.
.	.	8B-	8gL
.	.	8AJ	8aJ
.	.	8GL	8b-L
.	.	8B-	8dd
.	4E	8A	8cc
.	.	8GJ	8b-J
=108	=108	=108	=108
1.D_	4F	4d	8aL
.	.	.	8b-
.	4G	4r	8a
.	.	.	8gJ
.	2.A	8aL	[2f
.	.	8g	.
.	.	8f	.
.	.	8eJ	.
.	.	[2d	8fL]
.	.	.	8g
.	8B-L	.	8f
.	8cJ	.	8eJ
=109	=109	=109	=109
1.D_	2B-	8dL]	4d
.	.	8c#X	.
.	.	8d	4r
.	.	8eJ	.
.	2.A	[2f	8aaL
.	.	.	8gg
.	.	.	8ff
.	.	.	8eeJ
.	.	8fL]	[2dd
.	.	8g	.
.	4G	8a	.
.	.	8b-J	.
!!LO:LB:g=original
=110	=110	=110	=110
1.D_	4F	8aL	4dd]
.	.	8d	.
.	4G	8c	4ee
.	.	8B-J	.
.	4F	8AL	4ff
.	.	8G	.
.	4E	8A	4gg
.	.	8B-J	.
.	4F	4A	8ffL
.	.	.	8dd
.	4G	4e	8cc
.	.	.	8b-J
=111	=111	=111	=111
4D]	4A	4f	[1.a
8EL	4r	[4c#X	.
8FJ	.	.	.
8EL	4G	8c#L]	.
8D	.	8d	.
8C#X	8r	8e	.
8BBXJ	4r	8dJ	.
[2AA	.	8c#L	.
.	8FL	8BX	.
.	8E	8c#	.
.	8DJ	8dJ	.
=112	=112	=112	=112
4AA]	4C#X	8eL	1.a_
.	.	8a	.
4BBX	4D	8g	.
.	.	8fJ	.
4C#X	4E	8eL	.
.	.	8d	.
4D	4F	8c#X	.
.	.	8BXJ	.
8EL	2G	8c#L	.
8DJ	.	8d	.
4C#	.	8e	.
.	.	16f#XL	.
.	.	16gJJ	.
=113	=113	=113	=113
1.D;	8r	8f#XL	2a_
.	8GL	8eJ	.
.	8F#X	4d	.
.	8EJ	.	.
.	1F#;	1a;	8aL]
.	.	.	16ddL
.	.	.	16ee
.	.	.	16ff#X
.	.	.	16eeJ
.	.	.	8ddJ
.	.	.	2aa;
==	==	==	==
*-	*-	*-	*-
!!!system-decoration: [(s1,s2,s3,s4)]
!!!URL-pdf: https://vmirror.imslp.org/files/imglnks/usimg/8/88/IMSLP504269-PMLP05843-BGA-25.1.pdf#page=55 @{SMS1}
!!!URL-pdf: https://s9.imslp.org/files/imglnks/usimg/1/1d/IMSLP469177-PMLP5843-Bach,_J.S._-_The_Art_of_the_Fugue.pdf#page=99 @{SMS2}
!!!URL-youtube: https://www.youtube.com/watch?v=OMtjlaDEMdI&t=2925s Netherlands Bach Society/Malinowski
!!!URL-youtube: https://www.youtube.com/watch?v=N6sUlZa-IrU&t=2925s Netherlands Bach Society
!!!SMS: @{SMS1}
!!!SMS: Bach-Gesellschaft Ausgabe, Band 25.1 Leipzig: Breitkopf und Härtel, 1878. Plate B.W. XXV (1).
!!!SMS2: Bach-Gesellschaft Ausgabe, Band 47 Leipzig: Breitkopf und Härtel, 1926. Plate B.W. XLVII.
!!!PED: Wilhelm Rust
!!!PED-ODT: 1822-1892
!!!ONB: Die Kunst der Fuge nach dem Berliner Autograph in Anordnung und Lesarten
!!!ENC: Craig Stuart Sapp
!!!END: 2024/03/23
!!!EED: Craig Stuart Sapp
!!!EEV: 2024/03/28
!!!title: @{OPR} (@{SCA}), @{OTL}
!!!filter-keyboard: autostem -r | satb2gs | shed -e s/clefC./clefG2/I
!!!filter-modern: modori -m | autostem -r
